X:1
T:C Major                      Jeremiah Ingalls, 1805
T:Isaac Watts, 1717 (Psalm 96, Part 1)                 86. 86. (C. M.)
T:Peckersfield
T:Transcribed from Ingalls' Christian Harmony, 1805.
%%score [ 1 2 3 4 ]
L:1/8
Q:1/4=160
M:4/4
K:C
V:1 treble nm="Tr." snm="Tr."
V:2 treble nm="C." snm="C."
V:3 treble-8 nm="T." snm="T."
V:4 bass nm="B." snm="B."
V:1
"^1.  Sing to the Lord, ye distant lands,  Ye tribes of every tongue;                                                   His new–discovered grace demands  A new and nobler song.  His \n2.  Say to the nations,  Jesus reigns, God's own almighty Son;                                           His power the sinking world sustains, And grace surrounds his throne. His" c8 | %1
 e2 e2 e2 e2 | c2 c2 d2 d2 | e2 c2 Bc d2 | e6 z2 | z8 | z8 | z4 z2 c2 | e2 e2 c2 e2 | d2 d2 G2 d2 | %10
 d2 B2 G2 B2 | d6 d2 | %12
"^1. new–discovered  grace  demands   A     new  and  no – bler    song.\n2. power  the  sinking  world  sustains, And grace surrounds his throne." c2 B2 c2 B2 | %13
 c2 d2 c2 B2 | c2 d2 g2 f2 | e8 |] %16
V:2
"^3.  Let heav'n proclaim the joyful day,  Joy through the earth be seen;                          Let cities shine in bright array,  And fields in cheerful green. ______   Let\n4.  Let   an   unusual   joy   surprise   The   islands    of   the   sea:                                  Ye mountains, sink; ye valleys, rise;  Prepare the Lord his way. ______   Ye" E8 | %1
 G2 G2 G2 G2 | A2 F2 F2 F2 | E2 G2 G2 ^F2 | G6 z2 | z8 | z4 z2 E2 | G2 G2 E2 G2 | c2 c2 A2 c2 | %9
 G2 G2 G2 E2 | (D3 EDEDF | G6) G2 | %12
"^3. ci–ties  shine  in   bright  ar–ray,  And   fields  in   cheerful    green.\n4. moun–tains,  sink;  ye  valleys,  rise;   Pre–pare  the  Lord  his  way." G2 G2 G2 G2 | %13
 G2 A2 G2 G2 | G2 A2 G2 G2 | G8 |] %16
V:3
"^5.  Behold, he comes, he comes to bless  The nations as their God;                To show the world his righteousness, And send his truth abroad.                              To\n6.  But when his voice shall raise the dead, And bid the world draw near,     How  will the guilty nations dread  To see their Judge appear!                               How" G8 | %1
 c2 c2 c2 G2 | A2 A2 A2 A2 | G2 G2 G2 AB | c6 z2 | z4 z2 d2 | e2 e2 c2 e2 | d2 d2 G2 c2 | %8
 c2 A2 G2 c2 | d8 | z8 | z4 z2 d2 | %12
"^5. show   the   world  his  righteousness,   And send  his  truth  abroad.\n6. will  the  guil – ty  nations  dread   To   see  their  Judge  ap – pear!" e2 d2 e2 d2 | %13
 e2 f2 e2 d2 | e2 f2 e2 d2 | c8 |] %16
V:4
 C,8 | C,2 C,2 C,2 E,2 | F,2 F,2 D,2 D,2 | E,2 E,2 E,2 D,2 | C,6 C,2 | G,2 G,2 E,2 G,2 | %6
 C2 C2 A,2 C2 | G,2 G,2 G,2 E,2 | (C,4 C,D,C,E, | [G,,G,]8- | [G,,G,]8- | [G,,G,]6) [G,,G,]2 | %12
"^____________________________________\nEdited by B. C. Johnston, 2017\n   1.  Measure 7, Bass: third note changed from B to A.""^____________________________________\nEdited by B. C. Johnston, 2017\n   1.  Measure 7, Bass: third note changed from B to A." C2 G,2 C2 G,2 | %13
 C2 F,2 G,2 G,2 | C2 F,2 G,2 G,2 | C,8 |] %16

